-----BEGIN PGP PUBLIC KEY BLOCK-----

mQINBGqZw0UBEAC/zOGVzEHxvhG6zv62TSjZWwR6F/W1yPOekLGS48im9jl0OiOW
35b8puzMGxxjmqlt2CXiuc7xfdjKVwF5gbsCS8fj41sMO+CIjacZIJGVuKXQM+qh
9fouUSM7tXMhJ3AP4Yt4JkxV+7CXBaszwNAcVqczpprq/hA26A1lBqMSLf1tPc/I
mS1mN7f/qe7ECMVd6S9vI9Slmrfs7ybfVPYHLOY++79hLQyCTU5SsGD1EpbQo1C5
heAqF4syDgM3GO3MJoaQ64Jpth3AOFg8Bsz4k8lXnPOqyIyuugYFSnb0P7T3zpAH
Y7xFlKhAFfkuXWrvStaHEycsLWPILbvSqQPA6VD6ncLcraBbRFWnwNQLliwszWLJ
U6cjJ35FXPLB5wQd4DIudFdtqiiEVBhiJ+Cmkjr+pgtpuOVoOWWg+T5KQWRwBFcs
2JD99eOc9voC3W+PKXovviQ0Yf9l3S8+3XNERGCui2aeaSMrO9/Ff/SiDqwurmJx
fI/qoTMgNhTScsFjl37jJH0A8ppn98f7oekriv0JUoVgagYKJ8f89aRiV1lfgzOB
FYu/QNY7DvSca9WUWcYAdN5YIqzaKJY6dS9vAQxTDTlQtVR4ny40enXG9FpCJTtX
a3H2N0lVQNUbn3rqDhtfLvXzABFGJNF4SYAKCpHhU7fiyLISOUbH37PntQARAQAB
tDJPZHlzc2V1cyBBYnJhaGFtIEtpcmlrb3BvdWxvcyA8bWFpbEBvZHlzc2V1c2su
ZGV2PokCUQQTAQoAOxYhBF1GT/Lvauhvix4R2q2ww6Ov0EYJBQJqmcNFAhsDBQsJ
CAcCAiICBhUKCQgLAgQWAgMBAh4HAheAAAoJEK2ww6Ov0EYJN7sP/i6YBk+Y32VV
CYKJ2sUMf7ljofl3Xshpn/Z8m6MWa2neMUsVAPKo1rqvflunfSap4AXdUbWp0ziZ
neaYX4cgzb01qsixjN6f+8wgU3cWBvyVlGsOyKyq4+xGaaaZAMtat3shm8CWSPza
vbxzPhkrDOj/NBmeBhoQwm1Cap6QQCcM8yRYwPz8rCPlevc9uoq0O+aYLFCv3/Wl
yN3c3HnDvDDb6tC453k4V7C4qk3h3V8Y7EMy0eAj/94c2ssOa9ucIDMLq81qorUI
KbTuvo3aZGRbzEbidianKsxQYVyqMeQwuuSaPIkk5ZGC6e8CybSL2fLqKJB7tZmB
Cb6i+jFYnM1DnRBLAKKVpSDStIAz/mhr7w9o7PkomeiQTaj0d6FEs6QB3/m1yFEn
uqL76Kvzcgh3WHuQH78FobYzf9Fcp9LCGKG29ajJ+Q3ODyynJLSkmsHUTAzzO0CX
sarBXF1WKNaph4v922fmYn/w/IfrlgY3QxjoEe22w9EoE211y34MppDAXW8Fg+nI
VMgsDZEmi51QqL2qzig81QEn0PQGNXbJPTlYAzSYULt4iW3rcVrj6Lj/Y7Hi1MTe
jqRtupcEbiSV4TuxFNywtBEe+hCwIhSBNYp4Ci1yeP6nDiHYvmOlo87VoC/I1bW8
PNuNJLHHbqitXk+gy+tyrXnAGtOGbCnguQINBGqZw0UBEADCquAspKFaPflJZXim
EE9eOowBNQ4jtiUDBc8zbG2GnkAOfC6Ik7Ch09Dc5vAriq3hW6mUSuunTgbR4zDY
lnTbc8OxjREjzFS9oVvl/olkxY4fj+gJ5tn7pC5ofSxsWDnqihUjRui7QzErIt+a
N3Vwqm3C8VsIvD7QSyGWV40JXsEPJIBZRmi74TFLvB12n6lCUgLXuuUuumxaDuWI
dqv/r4moGUw0gbogCTf2BUhHqafM0jiqRIK1S24JZQcUoBrOAH4xdmRZtWek9crH
zGlT1EAhX3EI3qVjJ7sB5xOL8JtywFbx6+BEo6w+ndUnncQrzoHo4+5ARhZXbFMa
hJNxEIYcfPl27o5vrkLaPUQco3RAklIjZ5pJyHw+eQkuElQ3Ihk3bQcNeUTbCyzH
Jdpimwk9jW5uvPDuAKXVWqEYIwZsc0jLhNuehBAfciS7P4YXIY6aHBFWdYKwIgwq
sYtI7p61YYZQUd98CJopSa69l7PNUt7NGKxPMe85w5SqML8T+IHxYeLcAxp0SE3A
IGAmmZt2jKn5IZu9p0hvGDkWGnm0tcpYLbmqNDBbwSN35wfD5U0d8hK49q0PRetf
DsbJM8xGVvUbvXiLvtABLZWWQV9vUZp0zAN/+tvuL3O1WHfBx+tZzim60UbzlbDv
BhZFptfGkrUBqUBxeSxUew4spQARAQABiQI2BBgBCgAgFiEEXUZP8u9q6G+LHhHa
rbDDo6/QRgkFAmqZw0UCGwwACgkQrbDDo6/QRgll1xAArUe+Z68wfeUqaWKEiHOh
nVXPc5hj93vPBF53IGkDB32s9Z+YeHyV2ge+UEkpQ0QB4A2a9QhcjL4cIsQappRH
s0RceJc8ufOb4DnnhGSBLUtCscu2iglSK5vBVtT/brfvxIec4JqCaXTPsXJMaVBs
QqM1NL/96dlZSIw19B9DnYwPOJ9FYYNl8sKjGRBK4fri1aytevl2vH0XyXm+WHfG
+9SUTRNa8KMJfshJgQrEBbo59aqdawxtdlXdf16WBDGGV3xHmQnvKsFTT6HZKCrL
4qh58OMhPRIvTeZMe2NnffB/tLRb9+UGSIufTxb93A48LEN0bkcFTWPFcid91W5d
k3B9Oo2ojqOKs00Qf7rlJ52zK8145XyFg+gCIqCKPlFCuuyUzbZbFalAEixylkIG
WYi47RYNab3I9hEkhfUUrjLJCiGA2XNApSYnJxCg9WHRkvAIf3enr+nwbrX/Xi7i
Ek+7NZdLtrnlTgJMAGmmK8kuMShaQHD3h3b0PfROn1WfKMIbrtEvMYCuKt7/ZJEh
hIvY/Q6PU7NfhRx24YifVqe+dEQtLTP/5J7FHEyMJFGmdw4BaDAQSmA3/pe/Ztz0
102imldmUkxytfref7KMfv2DRY4dKHqJwo4opzDa5L2cCZPprTnS0HjzRmopy/7r
3glsB2eExIe9ZtvYYmrgQIw=
=/EDX
-----END PGP PUBLIC KEY BLOCK-----
